assets/symbols/mulberry/fibre_optic_lamp.svg

<svg height="850.394" viewBox="0 0 850.394 850.394" width="850.394" xmlns="http://www.w3.org/2000/svg"><path d="m466.96 545.76 42.89 185.49s-15.609 29.79-82.89 29.57c-69-.221-81.26-29.641-81.26-29.641l42.9-185.479z" fill="#8c469b"/><path d="m417.46 504.26c2.81 25.87 2.44 37.67 2.44 37.67-.85-9.25-1.94-18.29-3.26-27.109.28-3.161.56-6.681.82-10.561z" fill="#fbed24"/><g fill="none"><g stroke-width="7"><path d="m401.64 538.45s-34.38-62.96-123.47-112.17c-91.29-50.43-165.2-28.91-165.2-28.91" stroke="#ed107f"/><path d="m94.71 315.64s259.11 33.26 317.37 226.29" stroke="#8c469b"/><path d="m126.88 255.86s110.07 13.52 205.2 112.17c46.95 48.69 66.95 100.86 80 173.9" stroke="#faa41a"/><path d="m186.63 195.41s194.94 83.64 230.01 319.41a479.703 479.703 0 0 1 3.26 27.109" stroke="#cb82b7"/><path d="m253.83 149.78s127.22 128.58 154.17 304.22" stroke="#34a047"/><path d="m315.56 129.79s41.74 93.03 73.91 225.19c17.24 70.82 24.74 119.41 27.99 149.28 2.81 25.87 2.44 37.67 2.44 37.67" stroke="#0071bc"/><path d="m379.93 113.63s25.58 98.7 35.18 234.39c5.41 76.37 4.33 126.77 2.35 156.24-.26 3.88-.54 7.4-.82 10.561-1.36 15.52-2.8 22.6-2.8 22.6" stroke="#fbed24"/><path d="m447.74 540.19s34.38-62.96 123.47-112.171c91.29-50.43 165.2-28.91 165.2-28.91" stroke="#ef947d"/><path d="m754.67 317.38s-259.11 33.26-317.37 226.29" stroke="#faa41a"/><path d="m722.5 257.6s-110.07 13.52-205.2 112.17c-46.96 48.69-66.95 100.86-80 173.9" stroke="#ed107f"/><path d="m662.75 197.14s-201.98 90.03-225.45 346.53" stroke="#8c469b"/><path d="m595.55 151.52s-128.6 146.84-155.55 322.48" stroke="#58b947"/><path d="m533.82 131.52s-49.891 91.32-73.91 225.2c-14.78 82.41-22.92 134.379-26.97 162.049-2.511 17.08-3.46 24.9-3.46 24.9" stroke="#ef947d"/><path d="m469.45 115.37s-25.58 98.7-35.19 234.39c-6.279 88.82-3.79 142.521-1.319 169.01 1.3 13.971 2.6 20.381 2.6 20.381" stroke="#8c469b"/></g><path d="m426.96 760.82c67.28.22 82.89-29.57 82.89-29.57l-42.89-185.49-78.36-.06-42.9 185.48s12.26 29.42 81.26 29.64z" stroke="#231f20" stroke-width="21"/></g><path d="m0 0h850.394v850.394h-850.394z" fill="none"/><g stroke-width="2"><path d="m106 410-4 8m-2-20h-12m14-10-8-6m16-10 4 6" fill="none" stroke="#ed107f"/><path d="m88 326-10 2m8-14-12-4m14-8-2-6" fill="none" stroke="#8c469b"/><path d="m96 296 8-4" fill="#8c469b" stroke="#8c469b"/><path d="m118 264-10 4m6-16-10-6m18-6-4-8" fill="none" stroke="#faa41a"/><path d="m132 236 4-6" fill="#faa41a" stroke="#faa41a"/><path d="m200 184 8-12m-20 8-6-10m-2 16-14 2m12 16-16 6" fill="none" stroke="#cb82b7"/><path d="m240 158h-14m16-14-4-8m14 0 4-10" fill="none" stroke="#34a047"/><path d="m264 142 6-4" fill="#34a047" stroke="#34a047"/><path d="m298 128-12-6m22 0 2-8m14 4 14-8" fill="none" stroke="#0071bc"/><path d="m364 116-8-6m20-8v-8m14 6 6-12m0 20 10-2" fill="none" stroke="#fbed24"/><path d="m452 114-14-6m20-2-2-16m16 12 8-10m2 26 16-2" fill="none" stroke="#8c469b"/><path d="m516 112 6 14m14-10v-16m8 22 18-12m-14 22h16" fill="none" stroke="#ef947d"/><path d="m578 144-6-10m20 4 2-12m8 18 12-6m-10 24h10" fill="none" stroke="#34a047"/><path d="m648 184 2-10m12 10 6-12m2 20h18m-24 16 14 2" fill="none" stroke="#8c469b"/><path d="m708 244 4-14m14 16 16-10m-12 20 10 4m-20 12 16 8" fill="none" stroke="#ed107f"/><path d="m744 306 4-10m14 10 10-4m-8 18 12 4m-26 4 8 8" fill="none" stroke="#faa41a"/><path d="m728 382 10-10m4 22 12-6m-10 22 10 4m-30-4v12" fill="none" stroke="#ef947d"/></g></svg>

<svg xmlns="http://www.w3.org/2000/svg" width="850.394" height="850.394" viewBox="0 0 850.394 850.394" overflow="visible"><path d="M466.96 545.76l42.89 185.49s-15.609 29.79-82.89 29.57c-69-.221-81.26-29.641-81.26-29.641L388.6 545.7l78.36.06z" fill="#8c469b"/><path d="M417.46 504.26c2.81 25.87 2.44 37.67 2.44 37.67-.85-9.25-1.94-18.29-3.26-27.109.28-3.161.56-6.681.82-10.561z" fill="#fbed24"/><g fill="none"><path d="M401.64 538.45s-34.38-62.96-123.47-112.17c-91.29-50.43-165.2-28.91-165.2-28.91" stroke="#ed107f" stroke-width="7"/><path d="M94.71 315.64s259.11 33.26 317.37 226.29" stroke="#8c469b" stroke-width="7"/><path d="M126.88 255.86s110.07 13.52 205.2 112.17c46.95 48.69 66.95 100.86 80 173.9" stroke="#faa41a" stroke-width="7"/><path d="M186.63 195.41s194.94 83.64 230.01 319.41a479.703 479.703 0 0 1 3.26 27.109" stroke="#cb82b7" stroke-width="7"/><path d="M253.83 149.78S381.05 278.36 408 454" stroke="#34a047" stroke-width="7"/><path d="M315.56 129.79s41.74 93.03 73.91 225.19c17.24 70.82 24.74 119.41 27.99 149.28 2.81 25.87 2.44 37.67 2.44 37.67" stroke="#0071bc" stroke-width="7"/><path d="M379.93 113.63s25.58 98.7 35.18 234.39c5.41 76.37 4.33 126.77 2.35 156.24-.26 3.88-.54 7.4-.82 10.561-1.36 15.52-2.8 22.6-2.8 22.6" stroke="#fbed24" stroke-width="7"/><path d="M447.74 540.19s34.38-62.96 123.47-112.171c91.29-50.43 165.2-28.91 165.2-28.91" stroke="#ef947d" stroke-width="7"/><path d="M754.67 317.38S495.56 350.64 437.3 543.67" stroke="#faa41a" stroke-width="7"/><path d="M722.5 257.6s-110.07 13.52-205.2 112.17c-46.96 48.69-66.95 100.86-80 173.9" stroke="#ed107f" stroke-width="7"/><path d="M662.75 197.14S460.77 287.17 437.3 543.67" stroke="#8c469b" stroke-width="7"/><path d="M595.55 151.52S466.95 298.36 440 474" stroke="#58b947" stroke-width="7"/><path d="M533.82 131.52s-49.891 91.32-73.91 225.2c-14.78 82.41-22.92 134.379-26.97 162.049-2.511 17.08-3.46 24.9-3.46 24.9" stroke="#ef947d" stroke-width="7"/><path d="M469.45 115.37s-25.58 98.7-35.19 234.39c-6.279 88.82-3.79 142.521-1.319 169.01 1.3 13.971 2.6 20.381 2.6 20.381" stroke="#8c469b" stroke-width="7"/><path d="M426.96 760.82c67.28.22 82.89-29.57 82.89-29.57l-42.89-185.49-78.36-.06-42.9 185.48s12.26 29.42 81.26 29.64z" stroke="#231f20" stroke-width="21"/></g><path fill="none" d="M0 0h850.394v850.394H0z"/><path fill="none" stroke="#ed107f" stroke-width="2" d="M106 410l-4 8M100 398H88M102 388l-8-6M110 372l4 6"/><path fill="none" stroke="#8c469b" stroke-width="2" d="M88 326l-10 2M86 314l-12-4M88 302l-2-6"/><path fill="#8c469b" stroke="#8c469b" stroke-width="2" d="M96 296l8-4"/><path fill="none" stroke="#faa41a" stroke-width="2" d="M118 264l-10 4M114 252l-10-6M122 240l-4-8"/><path fill="#faa41a" stroke="#faa41a" stroke-width="2" d="M132 236l4-6"/><path fill="none" stroke="#cb82b7" stroke-width="2" d="M200 184l8-12M188 180l-6-10M180 186l-14 2M178 204l-16 6"/><path fill="none" stroke="#34a047" stroke-width="2" d="M240 158h-14M242 144l-4-8M252 136l4-10"/><path fill="#34a047" stroke="#34a047" stroke-width="2" d="M264 142l6-4"/><path fill="none" stroke="#0071bc" stroke-width="2" d="M298 128l-12-6M308 122l2-8M324 118l14-8"/><path fill="none" stroke="#fbed24" stroke-width="2" d="M364 116l-8-6M376 102v-8M390 100l6-12M396 108l10-2"/><path fill="none" stroke="#8c469b" stroke-width="2" d="M452 114l-14-6M458 106l-2-16M472 102l8-10M482 118l16-2"/><path fill="none" stroke="#ef947d" stroke-width="2" d="M516 112l6 14M536 116v-16M544 122l18-12M548 132h16"/><path fill="none" stroke="#34a047" stroke-width="2" d="M578 144l-6-10M592 138l2-12M602 144l12-6M604 162h10"/><path fill="none" stroke="#8c469b" stroke-width="2" d="M648 184l2-10M662 184l6-12M670 192h18M664 208l14 2"/><path fill="none" stroke="#ed107f" stroke-width="2" d="M708 244l4-14M726 246l16-10M730 256l10 4M720 272l16 8"/><path fill="none" stroke="#faa41a" stroke-width="2" d="M744 306l4-10M762 306l10-4M764 320l12 4M750 328l8 8"/><path fill="none" stroke="#ef947d" stroke-width="2" d="M728 382l10-10M742 394l12-6M744 410l10 4M724 410v12"/></svg>
